Adwaita++/mimetypes/16/gdnote.svg

<svg height="16" viewBox="0 0 16 16" width="16" xmlns="http://www.w3.org/2000/svg">
  <path d="m8.010031.000667c-1.888772.002666-3.737136.864522-4.875091 2.460257-1.769503 2.491585-1.127529 5.866356 1.398003 7.626062v5.246458h.865525v.666556h5.214002v-.666556h.855748v-5.246458c.542257-.379936 1.020641-.838526 1.398005-1.372438 1.805347-2.551574 1.10211-6.025662-1.583753-7.754041-1.005651-.645893-2.143607-.960507-3.278305-.960507m-.00782 1.015165c.924181 0 1.858791.25529 2.685863.786535 2.202264 1.416431 2.780366 4.24396 1.293072 6.340277-.343473.48192-.778841.903183-1.28851 1.231795l-.086684 1.293784h-5.214002l-.076254-1.293784c-2.207479-1.416431-2.782974-4.24396-1.290466-6.340278.929396-1.309781 2.43885-2.019662 3.976981-2.012997m-2.607001 10.316281h5.214002v1.330445h-5.214002m0 .666555h5.214002v1.143143h-5.214002" fill="#474747"/>
</svg>

<svg xmlns="http://www.w3.org/2000/svg" style="isolation:isolate" width="16" height="16" viewBox="0 0 16 16">
 <defs>
  <style id="current-color-scheme" type="text/css">
   .ColorScheme-Text { color:#474747; } .ColorScheme-Highlight { color:#5294e2; }
  </style>
  <linearGradient id="arrongin" x1="0%" x2="0%" y1="0%" y2="100%">
   <stop offset="0%" style="stop-color:#dd9b44"/>
   <stop offset="100%" style="stop-color:#ad6c16"/>
  </linearGradient>
  <linearGradient id="aurora" x1="0%" x2="0%" y1="0%" y2="100%">
   <stop offset="0%" style="stop-color:#09D4DF"/>
   <stop offset="100%" style="stop-color:#9269F4"/>
  </linearGradient>
  <linearGradient id="fitdance" x1="0%" x2="0%" y1="0%" y2="100%">
   <stop offset="0%" style="stop-color:#1AD6AB"/>
   <stop offset="100%" style="stop-color:#329DB6"/>
  </linearGradient>
  <linearGradient id="oomox" x1="0%" x2="0%" y1="0%" y2="100%">
   <stop offset="0%" style="stop-color:#efefe7"/>
   <stop offset="100%" style="stop-color:#8f8f8b"/>
  </linearGradient>
  <linearGradient id="rainblue" x1="0%" x2="0%" y1="0%" y2="100%">
   <stop offset="0%" style="stop-color:#00F260"/>
   <stop offset="100%" style="stop-color:#0575E6"/>
  </linearGradient>
  <linearGradient id="sunrise" x1="0%" x2="0%" y1="0%" y2="100%">
   <stop offset="0%" style="stop-color:#FF8501"/>
   <stop offset="100%" style="stop-color:#FFCB01"/>
  </linearGradient>
  <linearGradient id="telinkrin" x1="0%" x2="0%" y1="0%" y2="100%">
   <stop offset="0%" style="stop-color:#b2ced6"/>
   <stop offset="100%" style="stop-color:#6da5b7"/>
  </linearGradient>
  <linearGradient id="60spsycho" x1="0%" x2="0%" y1="0%" y2="100%">
   <stop offset="0%" style="stop-color:#df5940"/>
   <stop offset="25%" style="stop-color:#d8d15f"/>
   <stop offset="50%" style="stop-color:#e9882a"/>
   <stop offset="100%" style="stop-color:#279362"/>
  </linearGradient>
  <linearGradient id="90ssummer" x1="0%" x2="0%" y1="0%" y2="100%">
   <stop offset="0%" style="stop-color:#f618c7"/>
   <stop offset="20%" style="stop-color:#94ffab"/>
   <stop offset="50%" style="stop-color:#fbfd54"/>
   <stop offset="100%" style="stop-color:#0f83ae"/>
  </linearGradient>
  <linearGradient id="cyberneon" x1="0%" x2="0%" y1="0%" y2="100%">
   <stop offset="0" style="stop-color:#0abdc6"/>
   <stop offset="1" style="stop-color:#ea00d9"/>
  </linearGradient>
 </defs>
 <path style="fill:currentColor" class="ColorScheme-Text" d="M 8.010031 0.000667 C 6.121259 0.003333 4.272895 0.865189 3.13494 2.460924 C 1.365437 4.952509 2.007411 8.32728 4.532943 10.086986 L 4.532943 15.333444 L 5.398468 15.333444 L 5.398468 16 L 10.61247 16 L 10.61247 15.333444 L 11.468218 15.333444 L 11.468218 10.086986 C 12.010475 9.70705 12.488859 9.24846 12.866223 8.714548 C 14.67157 6.162974 13.968333 2.688886 11.28247 0.960507 C 10.276819 0.314614 9.138863 0 8.004165 0 M 7.996345 1.015165 C 8.920526 1.015165 9.855136 1.270455 10.682208 1.8017 C 12.884472 3.218131 13.462574 6.04566 11.97528 8.141977 C 11.631807 8.623897 11.196439 9.04516 10.68677 9.373772 L 10.600086 10.667556 L 5.386084 10.667556 L 5.30983 9.373772 C 3.102351 7.957341 2.526856 5.129812 4.019364 3.033494 C 4.94876 1.723713 6.458214 1.013832 7.996345 1.020497 M 5.389344 11.336778 L 10.603346 11.336778 L 10.603346 12.667223 L 5.389344 12.667223 M 5.389344 13.333778 L 10.603346 13.333778 L 10.603346 14.476921 L 5.389344 14.476921"/>
</svg>
